site/img/logos/hyve.svg

<?xml version="1.0" encoding="UTF-8"?>
<svg width="400px" height="400px" viewBox="0 0 400 400" version="1.1" xmlns="http://www.w3.org/2000/svg" xmlns:xlink="http://www.w3.org/1999/xlink">
    <title>logos/hyve</title>
    <g id="logos/hyve" stroke="none" stroke-width="1" fill="none" fill-rule="evenodd">
        <path d="M96.3869847,102.521473 C105.975114,98.3656045 110.945711,100.66355 116.162511,102.869779 C122.486821,105.552296 127.174823,108.257314 131.280128,111.099098 L131.862749,111.50601 C137.15099,115.23344 139.561971,118.454254 132.286508,133.055954 L131.818862,133.992873 C130.941278,135.801526 129.75164,138.723712 127.313696,143.753291 L126.412662,145.589238 C124.286725,149.864591 121.772074,154.549245 120.02091,157.697805 L118.799167,159.879302 C116.711584,163.694459 113.014863,171.860708 119.091947,182.222726 L120.392732,184.396039 C122.397451,187.712799 125.320227,192.468795 127.20156,195.822463 L127.475705,196.314641 C130.763444,202.262266 133.963478,207.023029 135.28025,211.686809 C137.472333,219.480368 133.850939,224.366664 130.921533,228.069657 L130.334049,228.811131 C128.10266,231.635068 126.012782,233.999767 122.77572,237.45466 L121.433978,238.876572 C117.179718,243.333883 115.835517,244.15436 114.63381,245.93186 C111.728708,250.23764 112.049638,252.458042 114.961449,257.087952 L115.217363,257.490807 C117.943223,261.745097 119.974535,265.471898 121.67004,268.703273 L122.00477,269.342952 C126.813427,278.495101 123.800627,280.894266 119.037768,284.282732 L117.802551,285.154777 C115.664685,286.641981 114.493756,287.312563 111.911823,288.696742 L110.400025,289.50462 C105.795663,291.966645 103.491686,292.544361 92.8250552,290.707944 L91.4099077,290.454495 C85.1559883,289.296117 77.4487287,287.39303 73.2659476,286.170035 C69.1993403,284.978684 66.2244054,283.393709 63.7495087,281.195097 C62.0050583,279.647363 59.5011397,277.004126 57.334895,274.656688 L54.8823261,271.977095 C52.7781551,269.666234 52.4575679,268.558696 47.5404019,267.443676 C41.4317354,266.050274 37.43622,266.122114 34.8194388,264.951717 C32.2028072,263.781319 30.0232039,262.247231 28.1318596,259.613088 L19.4818441,247.319874 C18.2484367,245.562482 16.5069093,242.811299 15.2278534,242.341195 L12.8494312,241.508923 C12.3248717,241.322078 11.7321263,241.102802 10.9773949,240.806058 C9.00632287,240.034524 7.56086705,238.943749 6.3274148,236.893608 C5.11060555,234.879537 3.12727576,230.124011 1.96478073,226.831483 C0.802279712,223.538954 0.422958685,221.563646 0.289801279,218.346849 C0.139999834,214.564011 0.568379821,207.882718 1.12728801,205.135127 C1.63538568,202.651999 2.47287092,200.311653 4.65244433,198.735059 C5.8727558,197.854118 7.70628369,197.237788 8.97740717,196.541237 C10.0645597,195.946011 10.3939473,195.148883 10.9773949,193.832411 L11.0587877,193.629573 C11.9309643,191.323586 16.7691425,175.712625 18.1022119,172.467568 C19.4818441,169.103499 20.865218,167.05246 23.6982683,165.228017 C26.5322166,163.395641 37.6526388,158.056414 40.1992261,156.667652 C42.7449154,155.275298 44.1237992,154.176591 45.2862643,152.347807 L45.5197325,151.951535 C47.4067258,148.608345 56.4438285,130.509261 58.516096,127.028159 C60.6991416,123.374933 63.0951638,120.158136 67.3114383,117.667075 L68.438796,117.015478 C74.0706131,113.81006 89.9079327,105.330136 96.3869847,102.521473 Z M88.5268813,252.765785 L81.7194279,251.696755 C63.7519178,248.932584 64.4777434,250.401321 59.4158811,259.414613 L59.2449752,259.717855 C56.7791258,264.072272 56.9506722,266.983997 60.9856256,271.058199 L61.7288503,271.796153 C66.0229575,276.122439 67.3983446,279.323033 81.7215993,282.298045 L90.5306918,284.102373 C98.7599821,285.741619 98.8750623,285.160469 106.445668,281.124754 L107.12673,280.74924 C113.373942,277.175095 113.284153,273.367457 108.147241,265.83756 L105.430929,261.971367 C100.692099,255.327981 99.2907717,254.507375 88.5268813,252.765785 L88.5268813,252.765785 Z M32.0302768,223.150872 L30.9753847,223.104579 C25.43577,222.916935 23.6704417,224.013495 22.6766115,230.90336 L22.4334884,232.702288 C21.4741324,240.018434 21.7945129,241.129472 27.9111004,249.944587 L28.7796355,251.175479 C32.5774896,256.462047 34.3661547,257.482882 40.752845,259.1132 L41.5079442,259.300973 C47.6256807,260.778235 49.4502935,260.024619 52.6666717,253.816856 L52.86137,253.43782 C56.4992257,246.296809 55.7929103,244.227715 49.992747,236.149593 L47.8696698,233.219129 C41.2275733,224.079007 39.011562,223.494664 32.0302768,223.150872 L32.0302768,223.150872 Z M279.420384,189.846025 L294.29431,189.846025 L295.640595,189.81911 C296.431323,189.812183 297.201663,189.863441 297.795026,190.197743 C298.495468,190.583286 299.318638,191.439083 299.514702,192.22274 L301.499289,223.481781 L301.499289,223.481781 L301.95777,231.033769 C301.996839,231.532459 302.075882,232.010248 302.320962,232.402096 C302.72207,233.032494 303.512313,233.30863 304.263642,233.30863 L329.602298,202.680137 L329.602298,202.680137 C331.820366,199.998849 333.933666,197.17852 336.154728,194.497232 C337.197908,193.344795 338.776897,189.87985 343.617134,189.87985 L396.438239,189.816678 C399.738493,189.853104 401.11984,190.180233 399.711489,193.05946 L399.591168,193.298548 C398.742555,194.954915 398.488121,195.780479 397.519774,197.427866 C396.285735,199.514708 394.928455,199.303223 393.571055,199.302762 L371.821917,199.393295 L371.821917,199.393295 C370.138161,199.393295 367.611778,199.147392 366.10014,199.477857 C365.645151,199.57574 365.15574,199.884802 364.780075,200.16004 C362.976585,201.477112 362.579967,203.815512 361.803195,205.734545 L361.275431,207.127797 L361.275431,207.127797 L360.742054,208.521048 C360.48313,209.228974 360.074538,209.960996 359.986235,210.736572 C359.869494,211.655678 360.938118,212.794645 361.740334,212.998492 C362.35846,213.155343 363.205576,213.095626 363.900032,213.095626 L368.134117,213.100116 L368.134117,213.100116 L382.732655,213.100116 L383.254052,213.090318 C384.628751,213.048612 386.988629,212.903117 387.780929,213.244395 C388.988744,213.756407 389.665239,215.031571 389.192291,216.297905 C388.466405,218.200026 387.985974,220.571503 386.222894,221.876151 C384.624448,223.062264 381.925949,222.651727 379.730331,222.651727 L359.535737,222.651727 C358.73801,222.651727 357.814564,222.545762 357.114121,222.756793 C356.160741,223.032929 355.138514,223.909231 354.578759,224.79077 C353.869337,225.883491 353.550546,227.335861 353.050657,228.56388 C352.157144,230.940745 351.250161,233.316562 350.335694,235.697019 C350.156094,236.243753 350.221947,236.709517 350.515295,237.184112 C350.807146,237.674871 351.241181,238.144975 351.772499,238.382797 C352.775269,238.822669 355.75215,238.568833 357.079698,238.568833 L378.778448,238.568833 L379.598079,238.558972 C379.970684,238.561292 380.338194,238.587328 380.635818,238.6962 C381.467967,238.996282 382.135483,239.902817 382.28964,240.771186 C382.380937,241.288585 381.964862,242.000103 381.792745,242.448805 L381.2473,243.9561 C380.641221,245.586501 379.876934,247.1955 378.181276,247.882772 C377.316199,248.23449 376.135325,248.116103 375.090648,248.116103 L369.769979,248.120593 L369.769979,248.120593 L337.694803,248.116103 C336.894083,248.103681 335.99159,248.226558 335.289651,247.997717 C334.512878,247.739391 333.736106,246.832857 333.623855,246.010885 C333.486161,245.079506 334.237491,243.93515 334.529342,243.130988 L349.111417,205.048021 C350.060307,202.57058 352.080814,196.906874 352.544782,195.64952 C353.200324,193.904101 351.805426,194.369866 351.550992,194.04389 C350.524275,194.099118 349.505041,194.437515 348.852492,195.360962 L345.719792,199.096433 C343.685515,201.53531 341.48421,204.187588 339.717179,206.285023 L339.145078,206.962564 C330.183007,217.530415 321.225425,228.098116 312.263353,238.662375 L308.535144,243.037446 L308.535144,243.037446 C307.060922,244.786457 305.419073,247.272729 303.153111,247.921087 C301.439422,248.408254 298.446078,248.120593 296.483941,248.120593 C295.089043,248.120593 292.181009,248.437588 291.154292,247.848947 C290.407453,247.417008 289.696534,246.803522 289.362776,245.98604 C288.945205,244.985964 289.026025,243.601243 288.937721,242.448805 L288.736232,239.952936 L288.736232,239.952936 L288.52913,237.46369 C287.689497,227.306526 286.849864,217.158193 286.001251,207.004471 L285.438502,200.084309 C285.362172,198.898047 285.471429,197.360216 284.925144,196.398455 C284.314502,195.335967 282.811843,195.191838 281.253807,196.491997 L279.69919,197.852555 C278.063716,199.294456 276.236667,200.929018 274.677024,202.293935 L255.61881,218.843894 L255.61881,218.843894 L251.868151,222.113823 L251.868151,222.113823 L251.083371,222.765568 C249.504325,224.092704 247.907529,225.572119 246.99798,227.391088 C246.279578,228.792722 245.808126,230.326212 245.21245,231.804474 L241.27321,242.058773 C240.521881,243.897733 240.120773,246.044709 238.41756,247.349358 C238.032915,247.633427 237.552483,247.925577 237.088515,248.036031 C235.644227,248.361857 232.980151,248.137506 231.380208,248.116103 C230.540575,248.099191 229.567739,248.222068 228.811919,248.027051 C227.960313,247.807041 226.966523,246.718062 227.00843,245.774111 C227.155103,245.316279 227.300281,244.855005 227.437974,244.392832 C227.822619,243.410567 228.207264,242.431893 228.582929,241.445287 L232.700273,230.656677 L232.700273,230.656677 L233.294143,229.223403 C233.739734,228.119328 234.128213,226.947498 234.071225,225.692815 C233.999384,224.180727 233.334862,222.81651 232.80953,221.511862 L231.167681,217.361141 L231.167681,217.361141 L223.108103,196.636126 C222.790808,195.860551 222.627671,194.294134 220.376676,194.251329 C218.939871,194.712603 218.71537,195.823134 218.419029,196.347718 L200.286849,244.197816 L200.286849,244.197816 C199.363402,246.888084 197.66019,248.328032 195.525935,248.328032 L188.36885,248.328032 C186.665637,248.328032 186.026559,247.07861 186.477057,245.637764 L193.538355,227.060773 L193.538355,227.060773 C194.415405,224.42214 193.442568,223.045352 191.16613,223.045352 L168.136839,223.062264 L168.136839,223.062264 C164.968171,223.04656 164.10046,224.104291 163.545695,225.506761 L162.338776,228.751965 C160.644417,233.267886 157.568643,241.381177 156.482254,244.197816 C155.554318,246.888084 153.328767,248.328032 151.833591,248.328032 L144.304434,248.328032 C141.988794,248.328032 142.030851,246.52534 142.282517,245.725449 L157.754502,204.722731 C159.728438,199.457261 161.280854,195.28652 161.906194,193.539811 C162.654904,191.437112 164.775412,190.003267 167.391732,189.887431 L167.735731,189.87985 C169.482347,189.867427 174.062163,189.871768 174.062163,189.87985 C175.669589,189.87985 176.667869,191.231644 176.170974,192.57371 L174.436724,197.170826 C172.261558,202.864723 169.441409,210.076143 169.079742,210.985917 C168.54094,212.367196 168.976472,213.507061 170.721591,213.507061 L194.674329,213.434922 L194.674329,213.434922 C198.466896,213.434922 199.283588,212.052864 199.923812,210.470678 L200.625622,208.695922 C202.295694,204.417504 204.922291,197.158727 206.25857,193.6796 C207.14011,191.468567 209.319264,189.87985 211.546312,189.87985 L232.69279,189.87985 C235.816344,189.87985 237.53602,191.082875 238.380143,193.052794 C238.951273,194.39037 239.085974,194.912186 239.481441,196.056169 L243.31916,207.170152 L243.31916,207.170152 C243.908849,208.728487 244.19172,210.541556 245.065777,211.964741 C245.457905,212.604119 246.305021,213.095626 247.07431,213.112539 C248.271648,213.129451 255.780451,205.839761 257.217256,204.565344 L267.089304,195.742164 L267.089304,195.742164 C269.352272,193.717915 271.636194,190.98589 274.491844,190.070376 C275.879259,189.626014 277.829422,189.846025 279.420384,189.846025 Z M112.822868,195.285477 L110.141271,191.328754 C103.549655,181.646725 102.108116,180.842763 84.8635847,183.045768 L81.2210499,183.523483 C65.48971,185.663561 63.6827411,187.527335 56.8672066,201.097587 L54.1546938,206.525338 C48.6409485,217.673398 48.7021486,219.437548 55.9160775,230.329504 L56.6909661,231.487892 C63.0127111,240.829052 66.1711815,242.467404 83.2833226,243.834125 L85.7341555,244.022386 C102.698264,245.266129 102.603276,243.741382 113.980459,230.745102 L117.077645,227.231195 C124.227029,219.039802 126.076245,214.925053 112.822868,195.285477 L112.822868,195.285477 Z M15.5765027,213.136123 L14.5456599,210.854343 C11.5866757,204.386495 10.9621635,203.827923 8.95570989,204.623492 L8.52092841,204.805603 C6.44673341,205.722089 5.29950817,207.04871 4.8977339,213.594916 L4.82666847,214.868102 C4.55890327,220.353666 5.01744218,222.689458 7.17061204,227.59304 L8.96427769,231.619425 C10.1063429,234.170599 10.757277,235.32568 12.3940098,236.105256 L12.6234497,236.20933 C14.9817407,237.224223 15.8235289,237.140409 17.1691866,230.102908 L17.6085036,227.774442 C18.5501309,222.583775 18.5816281,219.944997 15.5765027,213.136123 L15.5765027,213.136123 Z M50.1858614,176.085639 L49.0987368,173.859922 C45.1075617,165.647833 42.1194562,164.360396 33.0446852,169.233111 L32.1227842,169.733018 C23.7846138,174.300702 22.7903182,176.24753 19.8313624,186.195993 L19.5063895,187.293002 C16.4862919,197.526686 17.1950519,200.804389 19.5158114,205.933936 L20.9046135,208.922744 C23.1185195,213.614999 24.6595085,215.947054 31.366839,215.723388 L33.1807059,215.635209 C39.6607369,215.275445 40.6155488,214.613496 44.7003925,206.232031 L47.5404019,200.332906 C54.3406847,186.23465 53.3852179,182.702417 50.1858614,176.085639 L50.1858614,176.085639 Z M113.699718,115.049442 L112.858159,114.57992 C102.182304,108.646869 97.3296144,110.944412 86.1279644,116.5907 L82.4667983,118.43453 C68.7790461,125.367099 64.555386,128.758342 58.3155419,141.653488 L57.405896,143.547755 C51.331023,156.320405 51.3906935,159.12469 56.8872303,168.549072 L57.1530768,169.002923 C61.7492223,176.819303 66.0551855,177.774703 79.3280598,175.416549 L80.578986,175.189566 C100.162439,171.563016 103.126103,168.905873 112.372564,150.767703 L116.680286,142.236663 C125.976644,123.70822 125.909505,121.897172 113.699718,115.049442 L113.699718,115.049442 Z" id="Shape" fill="#FFFFFF"></path>
    </g>
</svg>

<svg width="400" height="400" viewBox="0 0 400 400" xmlns="http://www.w3.org/2000/svg"><path d="M96.387 102.521c9.588-4.155 14.559-1.857 19.776.349 6.324 2.682 11.012 5.387 15.117 8.23l.583.406c5.288 3.727 7.699 6.948.424 21.55l-.468.937c-.878 1.809-2.067 4.73-4.505 9.76l-.901 1.836c-2.126 4.276-4.64 8.96-6.392 12.109l-1.222 2.181c-2.087 3.815-5.784 11.982.293 22.344l1.3 2.173c2.005 3.317 4.928 8.073 6.81 11.426l.274.493c3.287 5.947 6.487 10.708 7.804 15.372 2.192 7.793-1.43 12.68-4.358 16.383l-.588.741c-2.231 2.824-4.321 5.189-7.558 8.644l-1.342 1.422c-4.254 4.457-5.598 5.277-6.8 7.055-2.905 4.306-2.584 6.526.327 11.156l.256.403c2.726 4.254 4.758 7.98 6.453 11.212l.335.64c4.808 9.152 1.796 11.551-2.967 14.94l-1.235.872c-2.138 1.487-3.31 2.158-5.891 3.542l-1.512.808c-4.604 2.462-6.908 3.04-17.575 1.203l-1.415-.254c-6.254-1.158-13.961-3.061-18.144-4.284-4.067-1.191-7.042-2.776-9.516-4.975-1.745-1.548-4.249-4.19-6.415-6.538l-2.453-2.68c-2.104-2.31-2.424-3.418-7.342-4.533-6.108-1.394-10.104-1.322-12.72-2.492-2.617-1.17-4.797-2.705-6.688-5.339l-8.65-12.293c-1.234-1.758-2.975-4.509-4.254-4.979l-2.379-.832a60.088 60.088 0 01-1.872-.703c-1.97-.771-3.416-1.862-4.65-3.912-1.216-2.014-3.2-6.77-4.362-10.063C.802 223.54.423 221.564.29 218.347c-.15-3.783.278-10.464.837-13.212.508-2.483 1.346-4.823 3.525-6.4 1.22-.88 3.054-1.497 4.325-2.194 1.088-.595 1.417-1.392 2-2.709l.082-.202c.872-2.306 5.71-17.917 7.043-21.162 1.38-3.365 2.763-5.416 5.596-7.24 2.834-1.832 13.955-7.172 16.501-8.56 2.546-1.393 3.925-2.491 5.087-4.32l.234-.396c1.887-3.344 10.924-21.443 12.996-24.924 2.183-3.653 4.58-6.87 8.795-9.36l1.128-.653c5.632-3.205 21.469-11.685 27.948-14.494zm-7.86 150.245l-6.808-1.07c-17.967-2.763-17.241-1.295-22.303 7.719l-.171.303c-2.466 4.354-2.294 7.266 1.74 11.34l.744.738c4.294 4.326 5.67 7.527 19.993 10.502l8.809 1.804c8.229 1.64 8.344 1.058 15.915-2.977l.68-.376c6.248-3.574 6.158-7.382 1.021-14.911l-2.716-3.867c-4.739-6.643-6.14-7.464-16.904-9.205zM32.03 223.15l-1.055-.046c-5.54-.188-7.305.908-8.298 7.798l-.244 1.8c-.959 7.315-.638 8.426 5.478 17.242l.869 1.23c3.797 5.287 5.586 6.308 11.973 7.938l.755.188c6.118 1.477 7.942.724 11.159-5.484l.194-.38c3.638-7.14 2.932-9.21-2.868-17.287l-2.123-2.93c-6.642-9.141-8.858-9.725-15.84-10.07zm247.39-33.305h14.874l1.347-.027c.79-.007 1.56.044 2.154.379.7.385 1.524 1.241 1.72 2.025l1.984 31.259.459 7.552c.039.498.118.976.363 1.368.401.63 1.191.907 1.943.907l25.338-30.629c2.218-2.681 4.332-5.501 6.553-8.183 1.043-1.152 2.622-4.617 7.462-4.617l52.821-.063c3.3.036 4.682.363 3.273 3.242l-.12.24c-.848 1.656-1.103 2.481-2.071 4.129-1.234 2.087-2.592 1.875-3.949 1.875l-21.75.09c-1.683 0-4.21-.246-5.72.085-.456.098-.945.407-1.32.682-1.804 1.317-2.201 3.656-2.978 5.575l-.528 1.393-.533 1.393c-.259.708-.667 1.44-.756 2.216-.117.919.952 2.058 1.754 2.261.618.157 1.466.098 2.16.098l4.234.004h14.599l.521-.01c1.375-.041 3.735-.187 4.527.154 1.208.512 1.884 1.788 1.411 3.054-.726 1.902-1.206 4.274-2.97 5.578-1.598 1.186-4.296.776-6.492.776h-20.194c-.798 0-1.721-.106-2.422.105-.953.276-1.975 1.152-2.535 2.034-.71 1.092-1.028 2.545-1.528 3.773-.894 2.377-1.8 4.753-2.715 7.133-.18.547-.114 1.013.18 1.487.291.49.725.961 1.256 1.199 1.003.44 3.98.186 5.308.186h21.698l.82-.01c.373.002.74.028 1.038.137.832.3 1.5 1.207 1.654 2.075.09.518-.325 1.23-.497 1.678l-.546 1.507c-.606 1.63-1.37 3.24-3.066 3.927-.865.351-2.046.233-3.09.233l-5.321.005-32.075-.005c-.8-.012-1.703.11-2.405-.118-.777-.259-1.554-1.165-1.666-1.987-.138-.931.613-2.076.905-2.88l14.582-38.083c.95-2.477 2.97-8.141 3.434-9.398.655-1.746-.74-1.28-.994-1.606-1.027.055-2.046.394-2.699 1.317l-3.132 3.735c-2.034 2.44-4.236 5.092-6.003 7.189l-.572.678c-8.962 10.567-17.92 21.135-26.882 31.7l-3.728 4.374c-1.474 1.75-3.116 4.236-5.382 4.884-1.714.487-4.707.2-6.67.2-1.394 0-4.302.317-5.329-.272-.747-.432-1.457-1.045-1.791-1.863-.418-1-.337-2.385-.425-3.537l-.202-2.496-.207-2.49c-.84-10.156-1.68-20.305-2.528-30.459l-.562-6.92c-.077-1.186.032-2.724-.514-3.686-.61-1.062-2.113-1.206-3.671.094l-1.555 1.36c-1.635 1.442-3.462 3.077-5.022 4.442l-19.058 16.55-3.75 3.27-.786.652c-1.579 1.327-3.175 2.806-4.085 4.625-.718 1.402-1.19 2.935-1.786 4.413l-3.939 10.255c-.751 1.839-1.152 3.986-2.855 5.29-.385.284-.866.577-1.33.687-1.444.326-4.108.102-5.708.08-.84-.017-1.812.106-2.568-.089-.852-.22-1.845-1.309-1.804-2.253.147-.458.292-.919.43-1.381.385-.982.77-1.961 1.145-2.948l4.117-10.788.594-1.434c.446-1.104.834-2.276.777-3.53-.072-1.512-.736-2.876-1.261-4.181l-1.642-4.15-8.06-20.726c-.317-.775-.48-2.342-2.731-2.385-1.437.462-1.662 1.572-1.958 2.097l-18.132 47.85c-.924 2.69-2.627 4.13-4.761 4.13h-7.157c-1.703 0-2.342-1.25-1.892-2.69l7.061-18.577c.877-2.639-.095-4.016-2.372-4.016l-23.03.017c-3.168-.015-4.036 1.042-4.59 2.445l-1.207 3.245c-1.695 4.516-4.77 12.63-5.857 15.446-.928 2.69-3.153 4.13-4.648 4.13h-7.53c-2.315 0-2.273-1.803-2.021-2.603l15.472-41.002c1.973-5.266 3.526-9.436 4.151-11.183.749-2.103 2.87-3.537 5.486-3.653l.344-.007c1.746-.013 6.326-.008 6.326 0 1.608 0 2.606 1.352 2.109 2.694l-1.734 4.597a1760.046 1760.046 0 01-5.357 13.815c-.54 1.381-.104 2.521 1.642 2.521l23.952-.072c3.793 0 4.61-1.382 5.25-2.964l.702-1.775c1.67-4.278 4.296-11.537 5.633-15.016.881-2.211 3.06-3.8 5.287-3.8h21.147c3.123 0 4.843 1.203 5.687 3.173.571 1.337.706 1.86 1.101 3.003l3.838 11.114c.59 1.558.873 3.372 1.747 4.795.392.64 1.239 1.13 2.008 1.148 1.198.016 8.706-7.273 10.143-8.548l9.872-8.823c2.263-2.024 4.547-4.756 7.403-5.672 1.387-.444 3.337-.224 4.928-.224zm-166.597 5.44l-2.682-3.957c-6.591-9.682-8.033-10.486-25.277-8.283l-3.643.477c-15.731 2.14-17.538 4.004-24.354 17.575l-2.712 5.427c-5.514 11.148-5.453 12.913 1.761 23.805l.775 1.158c6.322 9.341 9.48 10.98 26.592 12.346l2.451.188c16.964 1.244 16.87-.28 28.246-13.277l3.098-3.514c7.149-8.191 8.998-12.306-4.255-31.946zm-97.246 17.85l-1.031-2.282c-2.96-6.468-3.584-7.026-5.59-6.23l-.435.182c-2.074.916-3.221 2.243-3.623 8.789l-.071 1.273c-.268 5.486.19 7.821 2.344 12.725l1.793 4.026c1.142 2.552 1.793 3.707 3.43 4.486l.23.104c2.358 1.015 3.2.931 4.545-6.106l.44-2.329c.941-5.19.973-7.829-2.032-14.638zm34.609-37.05l-1.087-2.226c-3.991-8.212-6.98-9.5-16.054-4.627l-.922.5c-8.338 4.568-9.333 6.515-12.292 16.463l-.325 1.097c-3.02 10.234-2.31 13.511.01 18.64l1.389 2.99c2.214 4.692 3.755 7.024 10.462 6.8l1.814-.088c6.48-.36 7.435-1.022 11.52-9.403l2.84-5.9c6.8-14.097 5.844-17.63 2.645-24.246zm63.514-61.037l-.842-.47c-10.676-5.932-15.528-3.635-26.73 2.012l-3.661 1.844c-13.688 6.932-17.912 10.323-24.151 23.218l-.91 1.895c-6.075 12.772-6.015 15.577-.519 25.001l.266.454c4.596 7.816 8.902 8.772 22.175 6.414l1.251-.227c19.583-3.627 22.547-6.284 31.794-24.422l4.307-8.531c9.297-18.529 9.23-20.34-2.98-27.188z" fill="#FFF" fill-rule="evenodd"/></svg>
